icon-svg/tablet.svg

<svg xmlns="http://www.w3.org/2000/svg" viewBox="0 0 24 24"><path fill="#44739e" d="M18.672 5.943h2.176v.127h-2.176ZM3.63 5.964h.906v.094H3.63ZM22 17.311V6.812a.753.753 0 0 0-.753-.754H2.753A.753.753 0 0 0 2 6.812v10.499a.755.755 0 0 0 .67.746h18.66a.755.755 0 0 0 .67-.746M11.962 6.212h.01a.1.1 0 0 1 .029 0 .1.1 0 0 1 .029 0 .19.19 0 0 1 .162.189.2.2 0 0 1-.061.141.2.2 0 0 1-.094.048h-.074a.2.2 0 0 1-.092-.048.2.2 0 0 1-.062-.141.19.19 0 0 1 .153-.189M2.737 17.357V6.763h18.526v10.594Z"/></svg>

<?xml version="1.0" encoding="UTF-8"?>
<svg width="24px" fill="#44739e" height="24px" viewBox="0 0 24 24" version="1.1" xmlns="http://www.w3.org/2000/svg" xmlns:xlink="http://www.w3.org/1999/xlink">
            <path d="m 18.672298,5.8854709 h 2.175358 v 0.126248 H 18.672298 Z M 3.6289063,5.90625 H 4.5351562 V 6 H 3.6289063 Z M 22,17.254 V 6.754 A 0.753,0.753 0 0 0 21.247,6 H 2.753 A 0.753,0.753 0 0 0 2,6.754 v 10.5 A 0.755,0.755 0 0 0 2.67,18 H 21.33 A 0.755,0.755 0 0 0 22,17.254 Z M 11.962,6.154 h 0.01 a 0.1,0.1 0 0 1 0.029,0 0.1,0.1 0 0 1 0.029,0 0.19,0.19 0 0 1 0.162,0.189 0.186,0.186 0 0 1 -0.061,0.141 0.177,0.177 0 0 1 -0.094,0.048 0.2,0.2 0 0 1 -0.036,0 0.225,0.225 0 0 1 -0.038,0 v 0 A 0.178,0.178 0 0 1 11.871,6.484 0.186,0.186 0 0 1 11.809,6.343 0.188,0.188 0 0 1 11.962,6.154 Z M 2.737,17.3 V 6.705 H 21.263 V 17.3 Z"/>

</svg>
